images/usecases/scada/food-2.svg

<svg width="285" height="210" viewBox="0 0 285 210" fill="none" xmlns="http://www.w3.org/2000/svg">
<rect x="13.75" y="32.5234" width="164.5" height="164.5" rx="82.25" stroke="#91A3BE" stroke-width="1.5"/>
<path fill-rule="evenodd" clip-rule="evenodd" d="M66.6211 101.566C66.6211 100.376 67.5865 99.4102 68.7773 99.4102H87.4648C88.6557 99.4102 89.6211 100.376 89.6211 101.566C89.6211 102.757 88.6557 103.723 87.4648 103.723H85.6134C85.539 104.527 85.5236 105.453 85.6295 106.386C85.8233 108.093 86.3828 109.504 87.3654 110.373C90.8032 113.411 92.2527 116.858 92.552 118.525C92.5746 118.651 92.5859 118.779 92.5859 118.906V138.223C92.5859 139.414 91.6206 140.379 90.4297 140.379H65.2734C64.0826 140.379 63.1172 139.414 63.1172 138.223C63.1172 137.032 64.0826 136.066 65.2734 136.066H88.2734V119.133C88.0585 118.283 87.075 115.871 84.5096 113.604C82.4016 111.741 81.5984 109.109 81.3445 106.872C81.2201 105.776 81.2179 104.699 81.2869 103.723H68.7773C67.5865 103.723 66.6211 102.757 66.6211 101.566Z" fill="#305680"/>
<path fill-rule="evenodd" clip-rule="evenodd" d="M74.0161 101.056C73.7808 100.09 72.9154 99.4102 71.9211 99.4102H68.2375C67.0466 99.4102 66.0812 100.376 66.0812 101.566C66.0812 102.757 67.0466 103.723 68.2375 103.723H70.0889C70.1633 104.527 70.1787 105.453 70.0728 106.386C69.879 108.093 69.3195 109.504 68.337 110.373C64.8992 113.411 63.4496 116.858 63.1503 118.525C63.1277 118.651 63.1164 118.779 63.1164 118.906V138.223C63.1164 139.414 64.0818 140.379 65.2726 140.379C66.4635 140.379 67.4289 139.414 67.4289 138.223V119.133C67.6438 118.283 68.6273 115.871 71.1927 113.604C73.3008 111.741 74.1039 109.109 74.3578 106.872C74.6142 104.613 74.3517 102.434 74.0161 101.056Z" fill="#305680"/>
<path fill-rule="evenodd" clip-rule="evenodd" d="M102.738 101.566C102.738 100.376 103.704 99.4102 104.895 99.4102H123.582C124.773 99.4102 125.738 100.376 125.738 101.566C125.738 102.757 124.773 103.723 123.582 103.723H121.731C121.656 104.527 121.641 105.453 121.747 106.386C121.94 108.093 122.5 109.504 123.483 110.373C126.92 113.411 128.37 116.858 128.669 118.525C128.692 118.651 128.703 118.779 128.703 118.906V138.223C128.703 139.414 127.738 140.379 126.547 140.379H101.391C100.2 140.379 99.2344 139.414 99.2344 138.223C99.2344 137.032 100.2 136.066 101.391 136.066H124.391V119.133C124.176 118.283 123.192 115.871 120.627 113.604C118.519 111.741 117.716 109.109 117.462 106.872C117.337 105.776 117.335 104.699 117.404 103.723H104.895C103.704 103.723 102.738 102.757 102.738 101.566Z" fill="#305680"/>
<path fill-rule="evenodd" clip-rule="evenodd" d="M110.133 101.056C109.898 100.09 109.033 99.4102 108.038 99.4102H104.355C103.164 99.4102 102.198 100.376 102.198 101.566C102.198 102.757 103.164 103.723 104.355 103.723H106.206C106.28 104.527 106.296 105.453 106.19 106.386C105.996 108.093 105.437 109.504 104.454 110.373C101.016 113.411 99.5668 116.858 99.2675 118.525C99.2449 118.651 99.2336 118.779 99.2336 118.906V138.223C99.2336 139.414 100.199 140.379 101.39 140.379C102.581 140.379 103.546 139.414 103.546 138.223V119.133C103.761 118.283 104.744 115.871 107.31 113.604C109.418 111.741 110.221 109.109 110.475 106.872C110.731 104.613 110.469 102.434 110.133 101.056Z" fill="#305680"/>
<path fill-rule="evenodd" clip-rule="evenodd" d="M130.5 140.379H61.5C57.5305 140.379 54.3125 143.597 54.3125 147.566C54.3125 151.536 57.5305 154.754 61.5 154.754H130.5C134.47 154.754 137.688 151.536 137.688 147.566C137.688 143.597 134.47 140.379 130.5 140.379ZM61.5 136.066C55.1487 136.066 50 141.215 50 147.566C50 153.918 55.1487 159.066 61.5 159.066H130.5C136.851 159.066 142 153.918 142 147.566C142 141.215 136.851 136.066 130.5 136.066H61.5Z" fill="#305680"/>
<path d="M69.4062 147.566C69.4062 148.757 68.4409 149.723 67.25 149.723C66.0591 149.723 65.0938 148.757 65.0938 147.566C65.0938 146.376 66.0591 145.41 67.25 145.41C68.4409 145.41 69.4062 146.376 69.4062 147.566Z" fill="#305680"/>
<path d="M80.9062 147.566C80.9062 148.757 79.9409 149.723 78.75 149.723C77.5591 149.723 76.5938 148.757 76.5938 147.566C76.5938 146.376 77.5591 145.41 78.75 145.41C79.9409 145.41 80.9062 146.376 80.9062 147.566Z" fill="#305680"/>
<path d="M92.4062 147.566C92.4062 148.757 91.4409 149.723 90.25 149.723C89.0591 149.723 88.0938 148.757 88.0938 147.566C88.0938 146.376 89.0591 145.41 90.25 145.41C91.4409 145.41 92.4062 146.376 92.4062 147.566Z" fill="#305680"/>
<path d="M103.906 147.566C103.906 148.757 102.941 149.723 101.75 149.723C100.559 149.723 99.5938 148.757 99.5938 147.566C99.5938 146.376 100.559 145.41 101.75 145.41C102.941 145.41 103.906 146.376 103.906 147.566Z" fill="#305680"/>
<path d="M115.406 147.566C115.406 148.757 114.441 149.723 113.25 149.723C112.059 149.723 111.094 148.757 111.094 147.566C111.094 146.376 112.059 145.41 113.25 145.41C114.441 145.41 115.406 146.376 115.406 147.566Z" fill="#305680"/>
<path d="M126.906 147.566C126.906 148.757 125.941 149.723 124.75 149.723C123.559 149.723 122.594 148.757 122.594 147.566C122.594 146.376 123.559 145.41 124.75 145.41C125.941 145.41 126.906 146.376 126.906 147.566Z" fill="#305680"/>
<path fill-rule="evenodd" clip-rule="evenodd" d="M50 78.7461C50 77.5552 50.9654 76.5898 52.1562 76.5898L107.141 76.5898C108.331 76.5898 109.297 77.5552 109.297 78.7461C109.297 79.937 108.331 80.9023 107.141 80.9023L52.1563 80.9023C50.9654 80.9023 50 79.937 50 78.7461ZM118.102 78.7461C118.102 77.5552 119.067 76.5898 120.258 76.5898L139.844 76.5898C141.035 76.5898 142 77.5552 142 78.7461C142 79.937 141.035 80.9023 139.844 80.9023L120.258 80.9023C119.067 80.9023 118.102 79.937 118.102 78.7461Z" fill="#305680"/>
<path fill-rule="evenodd" clip-rule="evenodd" d="M113.789 82.6094C114.98 82.6094 115.945 83.5748 115.945 84.7656V90.5156C115.945 91.7065 114.98 92.6719 113.789 92.6719C112.598 92.6719 111.633 91.7065 111.633 90.5156V84.7656C111.633 83.5748 112.598 82.6094 113.789 82.6094Z" fill="#305680"/>
<path fill-rule="evenodd" clip-rule="evenodd" d="M113.969 82.6992C116.152 82.6992 117.922 80.9293 117.922 78.7461C117.922 76.5628 116.152 74.793 113.969 74.793C111.785 74.793 110.016 76.5628 110.016 78.7461C110.016 80.9293 111.785 82.6992 113.969 82.6992ZM113.969 87.0117C118.534 87.0117 122.234 83.3111 122.234 78.7461C122.234 74.1811 118.534 70.4805 113.969 70.4805C109.404 70.4805 105.703 74.1811 105.703 78.7461C105.703 83.3111 109.404 87.0117 113.969 87.0117Z" fill="#305680"/>
<path d="M97.3086 0.773438V16.7734" stroke="#91A3BE" stroke-width="1.5"/>
<line x1="263.629" y1="112.234" x2="192.856" y2="112.234" stroke="#91A3BE" stroke-width="1.5"/>
<mask id="path-19-inside-1_10336_18454" fill="white">
<path d="M96.6276 15.7671C109.37 15.7351 121.993 18.2219 133.774 23.0849C145.556 27.948 156.263 35.0918 165.285 44.1072C174.306 53.1226 181.463 63.8324 186.346 75.6232C191.229 87.4139 193.742 100.054 193.741 112.819L192.394 112.819C192.394 100.231 189.916 87.7672 185.101 76.1404C180.286 64.5137 173.229 53.9529 164.333 45.0629C155.437 36.1729 144.878 29.1284 133.261 24.333C121.644 19.5376 109.196 17.0854 96.631 17.117L96.6276 15.7671Z"/>
</mask>
<path d="M96.6276 15.7671C109.37 15.7351 121.993 18.2219 133.774 23.0849C145.556 27.948 156.263 35.0918 165.285 44.1072C174.306 53.1226 181.463 63.8324 186.346 75.6232C191.229 87.4139 193.742 100.054 193.741 112.819L192.394 112.819C192.394 100.231 189.916 87.7672 185.101 76.1404C180.286 64.5137 173.229 53.9529 164.333 45.0629C155.437 36.1729 144.878 29.1284 133.261 24.333C121.644 19.5376 109.196 17.0854 96.631 17.117L96.6276 15.7671Z" fill="#B2BFD1" stroke="#91A3BE" stroke-width="2" mask="url(#path-19-inside-1_10336_18454)"/>
<path d="M274.243 122.255C268.796 122.255 264.377 117.83 264.377 112.37C264.377 106.909 268.796 102.484 274.243 102.484C279.691 102.484 284.109 106.909 284.109 112.37C284.109 117.83 279.691 122.255 274.243 122.255Z" fill="#F4F8FE" stroke="#91A3BE" stroke-width="1.5"/>
</svg>

<svg width="285" height="210" fill="none" xmlns="http://www.w3.org/2000/svg"><rect x="13.75" y="32.523" width="164.5" height="164.5" rx="82.25" stroke="#91A3BE" stroke-width="1.5"/><path fill-rule="evenodd" clip-rule="evenodd" d="M66.621 101.566c0-1.19.966-2.156 2.156-2.156h18.688a2.156 2.156 0 0 1 0 4.313h-1.852c-.074.804-.09 1.73.016 2.663.194 1.707.754 3.118 1.736 3.987 3.438 3.038 4.888 6.485 5.187 8.152.023.126.034.254.034.381v19.317a2.156 2.156 0 0 1-2.156 2.156H65.273a2.156 2.156 0 1 1 0-4.313h23v-16.933c-.215-.85-1.198-3.262-3.763-5.529-2.108-1.863-2.912-4.495-3.166-6.732a17.317 17.317 0 0 1-.057-3.149h-12.51a2.157 2.157 0 0 1-2.156-2.157Z" fill="#305680"/><path fill-rule="evenodd" clip-rule="evenodd" d="M74.016 101.056a2.156 2.156 0 0 0-2.095-1.646h-3.684a2.156 2.156 0 0 0 0 4.313h1.852c.074.804.09 1.73-.016 2.663-.194 1.707-.753 3.118-1.736 3.987-3.438 3.038-4.887 6.485-5.187 8.152a2.162 2.162 0 0 0-.034.381v19.317a2.156 2.156 0 1 0 4.313 0v-19.09c.215-.85 1.198-3.262 3.764-5.529 2.108-1.863 2.91-4.495 3.165-6.732.256-2.259-.006-4.438-.342-5.816ZM102.738 101.566c0-1.19.966-2.156 2.157-2.156h18.687a2.156 2.156 0 0 1 0 4.313h-1.851c-.075.804-.09 1.73.016 2.663.193 1.707.753 3.118 1.736 3.987 3.437 3.038 4.887 6.485 5.186 8.152.023.126.034.254.034.381v19.317a2.156 2.156 0 0 1-2.156 2.156h-25.156a2.156 2.156 0 1 1 0-4.313h23v-16.933c-.215-.85-1.199-3.262-3.764-5.529-2.108-1.863-2.911-4.495-3.165-6.732a17.264 17.264 0 0 1-.058-3.149h-12.509a2.157 2.157 0 0 1-2.157-2.157Z" fill="#305680"/><path fill-rule="evenodd" clip-rule="evenodd" d="M110.133 101.056a2.155 2.155 0 0 0-2.095-1.646h-3.683a2.157 2.157 0 1 0 0 4.313h1.851c.074.804.09 1.73-.016 2.663-.194 1.707-.753 3.118-1.736 3.987-3.438 3.038-4.887 6.485-5.186 8.152a2.162 2.162 0 0 0-.034.381v19.317a2.156 2.156 0 1 0 4.312 0v-19.09c.215-.85 1.198-3.262 3.764-5.529 2.108-1.863 2.911-4.495 3.165-6.732.256-2.259-.006-4.438-.342-5.816Z" fill="#305680"/><path fill-rule="evenodd" clip-rule="evenodd" d="M130.5 140.379h-69a7.187 7.187 0 1 0 0 14.375h69a7.188 7.188 0 1 0 0-14.375Zm-69-4.313c-6.351 0-11.5 5.149-11.5 11.5 0 6.352 5.149 11.5 11.5 11.5h69c6.351 0 11.5-5.148 11.5-11.5 0-6.351-5.149-11.5-11.5-11.5h-69Z" fill="#305680"/><path d="M69.406 147.566a2.157 2.157 0 1 1-4.313 0 2.157 2.157 0 0 1 4.313 0ZM80.906 147.566a2.157 2.157 0 1 1-4.313 0 2.157 2.157 0 0 1 4.313 0ZM92.406 147.566a2.157 2.157 0 1 1-4.313 0 2.157 2.157 0 0 1 4.313 0ZM103.906 147.566a2.157 2.157 0 1 1-4.313.001 2.157 2.157 0 0 1 4.313-.001ZM115.406 147.566a2.157 2.157 0 1 1-4.313.001 2.157 2.157 0 0 1 4.313-.001ZM126.906 147.566a2.157 2.157 0 1 1-4.313.001 2.157 2.157 0 0 1 4.313-.001Z" fill="#305680"/><path fill-rule="evenodd" clip-rule="evenodd" d="M50 78.746c0-1.19.965-2.156 2.156-2.156h54.985a2.157 2.157 0 0 1 0 4.312H52.156A2.156 2.156 0 0 1 50 78.746Zm68.102 0c0-1.19.965-2.156 2.156-2.156h19.586a2.156 2.156 0 1 1 0 4.312h-19.586a2.156 2.156 0 0 1-2.156-2.156ZM113.789 82.61c1.191 0 2.156.965 2.156 2.156v5.75a2.156 2.156 0 1 1-4.312 0v-5.75c0-1.191.965-2.157 2.156-2.157Z" fill="#305680"/><path fill-rule="evenodd" clip-rule="evenodd" d="M113.969 82.7a3.953 3.953 0 1 0 0-7.907 3.953 3.953 0 0 0 0 7.906Zm0 4.312c4.565 0 8.265-3.7 8.265-8.266a8.266 8.266 0 1 0-8.265 8.266Z" fill="#305680"/><path d="M97.309.773v16M263.629 112.234h-70.773" stroke="#91A3BE" stroke-width="1.5"/><mask id="a" fill="#fff"><path d="M96.628 15.767a96.716 96.716 0 0 1 37.146 7.318 96.864 96.864 0 0 1 31.511 21.022 97.058 97.058 0 0 1 21.061 31.516 97.195 97.195 0 0 1 7.395 37.196h-1.347a95.863 95.863 0 0 0-7.293-36.679 95.7 95.7 0 0 0-20.768-31.077 95.52 95.52 0 0 0-31.072-20.73 95.37 95.37 0 0 0-36.63-7.216l-.003-1.35Z"/></mask><path d="M96.628 15.767a96.716 96.716 0 0 1 37.146 7.318 96.864 96.864 0 0 1 31.511 21.022 97.058 97.058 0 0 1 21.061 31.516 97.195 97.195 0 0 1 7.395 37.196h-1.347a95.863 95.863 0 0 0-7.293-36.679 95.7 95.7 0 0 0-20.768-31.077 95.52 95.52 0 0 0-31.072-20.73 95.37 95.37 0 0 0-36.63-7.216l-.003-1.35Z" fill="#B2BFD1" stroke="#91A3BE" stroke-width="2" mask="url(#a)"/><path d="M274.243 122.255c-5.447 0-9.866-4.425-9.866-9.885 0-5.461 4.419-9.886 9.866-9.886 5.448 0 9.866 4.425 9.866 9.886 0 5.46-4.418 9.885-9.866 9.885Z" fill="#F4F8FE" stroke="#91A3BE" stroke-width="1.5"/></svg>
